!! 00000] TT[WS
!!!OTL: Zhankai dashengchan
!!!ARE: Asia, China, Shanxi Zuoquan
!! Ethnic Group: Han
!! WII, 252 (1)
!!!SCT: J0777
!!!YEM: Copyright 1995, estate of Helmut Schaffrath.
**kern
*ICvox
*Ivox
*M2/4
*k[b-e-]
*B-:
{8.ccc
16ccc
8ccc
8ccc
=1
4ccc
8bb-
8gg
=2
4.ccc
8ddd
=3
4ccc
4r}
=4
{4bb-
4bb-
=5
4ccc
8bb-
8gg
=6
4.ff
8ee-
=7
2ff}
=8
{4ff
8gg
8bb-
=9
4ccc
8fff
8ddd
=10
8gg
8bb-
8gg
8ff
=11
4.ee-
8ff}
=12
{4bb-
8aa
8gg
=13
4ff
8bb-
8dd
=14
4.cc
8b-
=15
2cc}
==
!!!AGN: Xiaodiao. Laodong, Xinminge
!!!ONB: ESAC (Essen Associative Code) Database: CHINA
!!!AMT: simple duple
!!!AIN: vox
!!!EED: Helmut Schaffrath
!!!EEV: 1.0
*-
